X:1
T:The Little Shepherd
T:Claude Debussy
%%score { ( 1 4 ) | ( 2 3 ) }
L:1/8
Q:1/4=40
M:4/4
K:A
V:1 treble nm="Piano"
V:4 treble 
V:2 bass 
V:3 bass 
V:1
!p!"^très doux et délicatement expressif""^Très modéré" (g2- gf/e/ d(3e/d/c/ Bb | g4- gf/e/ d2-) | %2
 d2!<(!{/e} !tenuto!d4!<)!!mf!!<(!{/=f} !tenuto!d2-!<)! | %3
!p! d2!>(!{!fermata!=g!fermata!=f} !breath!!fermata!d6!>)! | %4
!p![Q:1/4=50]"^Plus mouvementé" (c/>B/c/>d/ e/>d/c/>B/ c/>B/c/>d/ (3e/=f/e/(3d/c/B/ | %5
 c/>d/B-) B2- B4 | (c/>B/c/>d/ e/>d/c/>B/) (c/>B/c/>d/ (3e/=f/e/(3d/c/B/) | %7
!p![Q:1/4=40]"^Au Mouvt"!>(! (c/>d/B- B4- (3BAG!>)! | %8
!p!"^piú" !tenuto!F/>G/E-[Q:1/4=30]"^Cédez   -          -" E6) | z4 !tenuto![c'e']4- | [c'e']4 z4 | %11
!p![Q:1/4=40]"^Au Mouvt" (G/B/c- ce!<(! ^dc/B/ Gf | e(3^d/c/B/!<)! G4)!>(! (d(3c/B/!>)!G/ | %13
!p! F6)!>(! (!tenuto!^d(3c/B/G/!>)! | F2)!>(! (!tenuto!^d(3c/B/G/!>)! F2)!<(! (A(3G/F/E/!<)! | %15
 C/>^D/B,-"^piú"[Q:1/4=30]"^Cédez   -          -          -          -          -          -         -" B,6) | %16
!pp! z4!ppp! !tenuto![gb]4- | [gb]4 z4 | %18
[Q:1/4=40]"^Au Mouvt" z"^in poco piú forte" (3(!courtesy!=d/^e/f/ g2- ga gf/e/ | %19
!<(! (3d/b/a/(3g/f/^e/!<)!!>(! d4 f2)!>)! | %20
!p![Q:1/4=50]"^Plus mouvementé" (^e/>^d/e/>f/) (g/>f/e/>d/)!<(! (e/>d/e/>!<)!f/)!>(! (3(g/a/g/(3f/e/!>)!d/) | %21
"^cre   -       -        -     scen    -"[Q:1/4=60]"^Poco animato" (c/>^d/^B- B4- (3Bcd) | %22
"^-    do" (^e/>f/^d- (3def) (g/>^a/f- (3fga) | %23
!mf! !tenuto!^b/>(c'/^a-) a2!p!!>(! !tenuto!^A4!>)! | %24
!p!!>(! !tenuto!^b/>(c'/^a-)!>)! a2!p!!>(! !tenuto!^A4-!>)! | A2 z2 z4 | %26
!pp![Q:1/4=50]"^Un peu retenu\n(en conservant le rythme)" (c/>!>(!B/c/>d/) (e/>d/c/>!>)!B/)!pp! (c/>!>(!B/c/>d/ (3e/=f/e/(3d/!>)!c/B/) | %27
 (c/>d/B- B4- (3BAG | F/>G/E-[Q:1/4=30]"^Cédez   -          -          -" E6) | %29
!ppp! z4 !tenuto![c'e']4- | [c'e']4 z4 |] %31
V:2
 z8 | z8 | z8 | z8 |[K:treble] (=G2 _A2) (G2 A2) | ([E=G]4 [^DF]4) | %6
 ([D=F]2 [A,E]2) ([DF]2 [A,E]2) | ^E4 F2 =E2 | %8
[K:bass] [B,,A,][E,G,]- [E,G,]4!>(! (!tenuto!E,-E,/4D,/4C,/4!>)!B,,/4 | %9
!pp!!ppp! !tenuto![A,,E,]8-) | [A,,E,]4 z4 | z8 | z8 | (E^D C4) ([F,A,E][G,B,D] | %14
 [A,C][G,B,^D][F,A,E][G,B,D] [A,C]2) (C,2 | %15
!>(! [F,,E,][B,,^D,]-!>)! [B,,D,]4)!p! (!tenuto!B,,-B,,/4A,,/4G,,/4F,,/4 |!ppp! [E,,B,,]8-) | %17
 [E,,B,,]4 z4 | z8 | z8 |[K:treble] ((^A2 =A2 G2 A2 | [F^A]4 [^EG]2 [^DF]2)) | %22
 ([^Ac]2 [G^B][FA]) ([c^e]2 [B^d]2) | ([^A,^E]4[K:bass] [^D,^A,]4) | %24
[K:treble] ([^A,^E]4[K:bass] [^D,^A,]4-) | [D,^A,]2 z2 z4 | %26
[K:treble] ([=D=F]2 [A,E]2) ([DF]2 [A,E]2) | (^E4 F2 =E2 | %28
[K:bass] [B,,A,][E,G,]- [E,G,]4)!>(! (!tenuto!E,-E,/4D,/4!>)!C,/4B,,/4 | [A,,E,]8-) | [A,,E,]8 |] %31
V:3
 x8 | x8 | x8 | x8 |[K:treble] !tenuto!=F4 !tenuto!F4 | x8 | x8 | D6 C2 |[K:bass] x8 | %9
 z2 [A,,,E,,]6- | [A,,,E,,]4 x4 | x8 | x8 | [A,B,]4 x4 | x8 | x8 | z2 [E,,,B,,,]6- | %17
 [E,,,B,,,]4 x4 | x8 | x8 |[K:treble] C8 | x8 | x8 | x4[K:bass] x4 |[K:treble] x4[K:bass] x4 | x8 | %26
[K:treble] x8 | D6 C2 |[K:bass] x8 | z2 [A,,,E,,]6- | [A,,,E,,]8 |] %31
V:4
 x8 | x8 | x8 | x8 | x8 | x8 | x8 | x8 | D2- D6 | !tenuto![CE]8- | [CE]4 x4 | x8 | x8 | x8 | x8 | %15
 A,2- A,6 | [G,B,]8- | [G,B,]4 x4 | x8 | x8 | x8 | x8 | x8 | (c4 ^E/>)(^^F/-[^DF]-) [DF]2 | %24
 (c4 ^E/>)(^^F/-[^DF]-) [DF]2- | [DF]!tenuto!^D- D6 | x8 | x8 | D2- D6 | [CE]8- | [CE]8 |] %31

